src/assets/buttons/slack.svg

<svg height="55" viewBox="0 0 55 55" width="55" xmlns="http://www.w3.org/2000/svg"><g fill="none"><rect fill="#141414" height="55" rx="2" width="55"/><g transform="translate(13 13)"><path d="m19.1107819 1.81099048c-.4469278-1.37617986-1.9246621-2.12925766-3.3002578-1.68198484-1.3758255.44704298-2.1287093 1.92515783-1.6815517 3.30110785l6.7725082 20.84266051c.4650807 1.2856221 1.8534293 2.008016 3.1861705 1.6244094 1.390187-.40027 2.2375116-1.8771208 1.7939156-3.2427279zm-10.99974592 3.00000304c-.44715603-1.37606297-1.92477002-2.12913969-3.30036075-1.68209735-1.37593539.44715726-2.12893144 1.92515507-1.68166052 3.30133296l6.77259853 20.84274567c.46496416 1.2855054 1.85342266 2.0080131 3.18615906 1.6240623 1.390067-.4000397 2.2373885-1.8768883 1.7937942-3.2427233z" fill="#fff"/><path d="m27.1890906 19.1108636c1.3761845-.4469306 2.129035-1.9244442 1.6819906-3.3003931-.4470446-1.3756042-1.9251643-2.1286077-3.301119-1.681562l-20.84273044 6.7727797c-1.28562637.4648538-2.00802266 1.853211-1.62441484 3.1859604.40027145 1.3900806 1.87712713 2.2375254 3.24273882 1.7939267l20.84353486-6.7705968" fill="#fff"/><path d="m9.717 25 5.283-1.717-1.717-5.283-5.283 1.717z" fill="#b8b8b8"/><path d="m19.7171559 22c1.9972144-.6486492 3.8535464-1.2518453 5.2828441-1.7162454l-1.7169122-5.2837546-5.2830878 1.7169765z" fill="#b8b8b8"/><path d="m24.1890065 8.1110021c1.376063-.4469365 2.1291396-1.9245844 1.6820974-3.30055137-.4470425-1.3756223-1.9251551-2.12852073-3.301333-1.68158422l-20.84274573 6.77298371c-1.28550529.46463018-2.00801304 1.85312048-1.62406228 3.18588748.40003968 1.389984 1.87688828 2.2374399 3.2427233 1.7938353l20.84332031-6.77068579" fill="#fff"/><path d="m5.71697653 15c1.43853144-.4674954 3.2932073-1.0702671 5.28302347-1.7166684-.6486491-1.9974581-1.25184528-3.85379018-1.71624539-5.2833316l-5.28375461 1.71739963zm10.99994027-4 5.2830832-1.71661329c-.5721915-1.76115278-1.1444564-3.52228169-1.7167949-5.28338671l-5.2832051 1.71710068z" fill="#b8b8b8"/></g></g></svg>

<svg xmlns="http://www.w3.org/2000/svg" width="55" height="55" viewBox="0 0 55 55">
  <g fill="none">
    <rect width="55" height="55" fill="#141414" rx="2"/>
    <g transform="translate(13 13)">
      <path fill="#FFF" d="M19.1107819 1.81099048C18.6638541.434810619 17.1861198-.318267177 15.8105241.129005642 14.4346986.576048619 13.6818148 2.05416347 14.1289724 3.43011349L20.9014806 24.272774C21.3665613 25.5583961 22.7549099 26.28079 24.0876511 25.8971834 25.4778381 25.4969134 26.3251627 24.0200626 25.8815667 22.6544555L19.1107819 1.81099048M8.11103598 4.81099352C7.66387995 3.43493055 6.18626596 2.68185383 4.81067523 3.12889617 3.43473984 3.57605343 2.68174379 5.05405124 3.12901471 6.43022913L9.90161324 27.2729748C10.3665774 28.5584802 11.7550359 29.2809879 13.0877723 28.8970371 14.4778393 28.4969974 15.3251608 27.0201488 14.8815665 25.6543138L8.11103598 4.81099352"/>
      <path fill="#FFF" d="M27.1890906,19.1108636 C28.5652751,18.663933 29.3181256,17.1864194 28.8710812,15.8104705 C28.4240366,14.4348663 26.9459169,13.6818628 25.5699622,14.1289085 L4.72723176,20.9016882 C3.44160539,21.366542 2.7192091,22.7548992 3.10281692,24.0876486 C3.50308837,25.4777292 4.97994405,26.325174 6.34555574,25.8815753 L27.1890906,19.1109785"/>
      <polyline fill="#B8B8B8" points="9.717 25 15 23.283 13.283 18 8 19.717 9.717 25"/>
      <path fill="#B8B8B8" d="M19.7171559,22 C21.7143703,21.3513508 23.5707023,20.7481547 25,20.2837546 L23.2830878,15 L18,16.7169765 L19.7171559,22"/>
      <path fill="#FFF" d="M24.1890065,8.1110021 C25.5650695,7.6640656 26.3181461,6.1864177 25.8711039,4.81045073 C25.4240614,3.43482843 23.9459488,2.68193 22.5697709,3.12886651 L1.72702517,9.90185022 C0.441519884,10.3664804 -0.280987874,11.7549707 0.102962885,13.0877377 C0.503002571,14.4777217 1.97985117,15.3251776 3.34568619,14.881573 L24.1890065,8.11088721"/>
      <path fill="#B8B8B8" d="M5.71697653 15C7.15550797 14.5325046 9.01018383 13.9297329 11 13.2833316 10.3513509 11.2858735 9.74815472 9.42954142 9.28375461 8L4 9.71739963 5.71697653 15M16.7169168 11L22 9.28338671C21.4278085 7.52223393 20.8555436 5.76110502 20.2832051 4L15 5.71710068 16.7169168 11"/>
    </g>
  </g>
</svg>
